X:1
T:Diane
T:Diane
T:Erno Rapee and Lew Pollack
C:Erno Rapee, Lew Pollack
Z:All Rights Reserved
L:1/4
M:3/4
K:F
V:1 treble 
%%MIDI program 4
V:1
 C D |:"C7" E F ^F | G d3/2 c/ |"F" d3- | d"Dm" f3/2 d/ |"Gm" A3- |"C7" A c3/2 E/ |"F" D3- | %8
w: I'm in|heav- en when|I see you|smile|* smile for|me|* my Di-|ane|
w: |light- ed the|road lead- ing|home|* pray for|me|* when you|can|
 D C D |"C7" E F ^F | G d3/2 c/ |"Dm" f3- | f e3/2 d/ |"A" e3- | e"E" =B ^c |"A" A3 |"C7" c C D :| %17
w: * and tho'|ev- ry- things|dark all the|while|* I can|see|* you Di-|ane|* you have|
w: * but no|mat- ter where|ev- er I|||||||
"Dm" f3- |"G" f a3/2 =B/ |"F" d3- | d"C7" d3/2 c/ |"F" f3- | f3 | z3 |] %24
w: foam|* smile for|me|* my Di-|ane.-|||
w: |||||||

